!!!!SEGMENT: pl-wtm--r-1461--011_stefani-jozef--wszechstronne-cwiczenia-glosowe-seksty-proste.krn
!!!cenid: 18xx:2188
!!!COM: Stefani, Józef
!!!COM-rismid: pe30024097
!!!CDT: 1800/04/16-1876/03/19
!!!CNT: Polish
!!!OTL: Wszechstronne ćwiczenia głosowe – Seksty proste
!!!PDT:
!!!AGN: Secular
!!!SMS-siglum: PL-Wtm
!!!SMS-shelfmark: R 1461
!!!SMS-shelfwork: 011 G
!!!SMS-variant:
!!!SMS-altvar:
!!!NIFC-rismid: 1001120710
!!!system-decoration: s1{(s2,s3)}
**kern	**kern	**kern	**text	**text
*part3	*part2	*part1	*part1	*part1
*staff3	*staff2	*staff1	*staff1	*staff1
*	*I"Fortepian	*I"Soprano/Tenore	*	*
*	*I'pf	*I'S/T	*	*
*clefF4	*clefG2	*clefG2	*	*
*k[]	*k[]	*k[]	*	*
*C:	*C:	*C:	*	*
*M2/2	*M2/2	*M2/2	*	*
*met(c|)	*met(c|)	*met(c|)	*	*
=1	=1	=1	=1	=1
*2\right	*2\right	*2\right	*	*
!	!	!LO:TX:a:Bi:t=Seksty proste.	!	!
2C\	2c 2G< 2E</	2c^>/	do	c.
2FF\	2a 2f/	2a^>/	la	a.
=2	=2	=2	=2	=2
1GG	2d 2B/	2d/	re	.
.	2b 2f 2d/	2b\	si	.
=3	=3	=3	=3	=3
1AA	2e 2c/	2e/	mi	.
.	2cc 2e 2c/	2cc\	do	.
=4	=4	=4	=4	=4
1D	2f 2d/	2f/	fa	.
.	2dd 2f 2d/	2dd\	re	.
=5	=5	=5	=5	=5
2E\	2g 2c/	2g/	sol	.
2C/	2ee 2cc 2g\	2ee\	mi	.
=6	=6	=6	=6	=6
2F\	2a 2f/	2a/	la	.
2D\	2ff 2a 2f\	2ff\	fa	.
!!LO:LB:g=original
=7	=7	=7	=7	=7
2G\	2b 2g/	2b\	si	.
2E\	2gg 2b 2g\	2gg\	sol	.
=8	=8	=8	=8	=8
2A\	2cc 2a\	2cc\	do	.
2F\	2aa 2cc 2a\	2aa\	la	.
=9||	=9||	=9||	=9||	=9||
2F\	2aa 2cc 2a\	2aa\	la	.
2A\	2cc 2a\	2cc\	do	.
=10	=10	=10	=10	=10
2E\	2gg 2b 2g\	2gg\	sol	.
2G\	2b 2g 2d/	2b\	si	.
=11	=11	=11	=11	=11
2D\	2ff 2a 2f\	2ff\	fa	.
2F\	2a 2f 2c/	2a/	la	.
=12	=12	=12	=12	=12
2C/	2ee 2g 2e/	2ee\	mi	.
2E\	2g 2e 2B/	2g/	sol	.
=13	=13	=13	=13	=13
1BB	2dd 2g/	2dd\	re	.
.	2f 2d 2G</	2f/	fa	.
!!LO:LB:g=original
=14	=14	=14	=14	=14
1C	2cc 2g 2e/	2cc\	do	.
.	2e 2c 2G</	2e/	mi	.
=15	=15	=15	=15	=15
2G\	2b 2g 2d/	2b\	si	.
2G\	2d 2G</	2d/	re	.
=16	=16	=16	=16	=16
1C	2a 2e 2c/	2a/	la	.
.	2c 2A< 2E</	2c/	do	.
=17	=17	=17	=17	=17
*	*^	*	*	*
2FF\	2c 2A<\	1d	1d	re	.
2GG\	2B 2G<\	.	.	.	.
*	*v	*v	*	*	*
=18	=18	=18	=18	=18
2.C 2.CC\	2.c 2.G< 2.E</	2.c/	do.	.
4r	4r	4r	.	.
==	==	==	==	==
*-	*-	*-	*-	*-
!!title: @{OTL};
!!!RDF**kern: > = above
!!!RDF**kern: < = below
!!!RDF**kern: | = vertical stroke
!!!RDF**kern: N = linked
!!!RDF**kern: i = editorial accidental
!!!EED: Wojciech Jakubiak-Danek
!!!EST: 2021-06-03
!!!URL-scan: http://repozytorium.nifc.pl/skany/pl-wtm-nut--r1461
!!!ONB-nifc: UWAGA: skan 0008, s. 13
!!!ENC: Berenika Jozajtis
!!!END: 2021-05-17
